X:19065
T:Sportsman's Hornpipe, The
R:Hornpipe
C:Trad.
O:England, Northwest
Z:Paul Hardy's Session Tunebook 2015 (see www.paulhardy.net). Creative Commons cc by-nc-sa licenced.
M:4/4
L:1/8
Q:1/4=150
K:EDor
"Em"G2GG "D"F2FE|"Bm"DEFG "D"AFED|"Em"G2GG "D"FEFD|"Em"B,2E2 E4|
"Em"G2GG "D"F2FE|"Bm"DEFG "D"AFED|"G"dcdB "D"AGFE|"Em"B,2E2 E4:|
|:"Em"EFGA "G"BcdB|"A"ecAc "Em"BAGF|"Em"EFGA "G"BcdB|"A"ecAc "Em"B3B|
"A"e2ec "G"d2dB|"Em"G2GB "D"AFD2|"Em"GFGE "Bm"FEFD|"Em"B,2E2 E4:|

